Yaru++/mimetypes/scalable/application-vnd.flatpak.svg

<svg height="256" viewBox="0 0 67.73 67.73" width="256" xmlns="http://www.w3.org/2000/svg" xmlns:xlink="http://www.w3.org/1999/xlink">
  <linearGradient id="linearGradient4226-3" gradientTransform="matrix(0 -.11988342 -.11987999 0 67.013156 62.749399)" gradientUnits="userSpaceOnUse" x1="529.655" x2="-35.31" y1="401.584" y2="119.093">
    <stop offset="0" stop-color="#37a6e6"/>
    <stop offset="1" stop-color="#6dc7f1"/>
  </linearGradient>
  <linearGradient id="linearGradient4358-6" gradientUnits="userSpaceOnUse" x1="88" x2="488" y1="88" y2="488">
    <stop offset="0" stop-opacity=".588235"/>
    <stop offset=".88" stop-opacity="0"/>
    <stop offset="1"/>
  </linearGradient>
  <filter id="filter4380" color-interpolation-filters="sRGB" height="1.088" width="1.106" x="-.05" y="-.04">
    <feGaussianBlur stdDeviation="8.48"/>
  </filter>
  <filter id="filter4346-7" color-interpolation-filters="sRGB" height="1.022" width="1.026" x="-.01" y="-.01">
    <feGaussianBlur stdDeviation="2.12"/>
  </filter>
  <path d="m189.84323 74c-70.59344 0-78.18921 7.250835-77.84323 77.98706v146.01294 146.01294c-.34598 70.73623 7.24979 77.98706 77.84323 77.98706h196.31354c70.59344 0 76.00668-7.27384 77.84323-77.98706v-146.01294-146.01294c0-70.737067-7.24979-77.98706-77.84323-77.98706z" filter="url(#filter4346-7)" opacity=".1" transform="matrix(.13228516 0 0 .13228516 -4.409451 -6.038882)"/>
  <path d="m189.84323 74c-70.59344 0-78.18921 7.250835-77.84323 77.98706v146.01294 146.01294c-.34598 70.73623 7.24979 77.98706 77.84323 77.98706h196.31354c70.59344 0 77.84323-7.24999 77.84323-77.98706v-146.01294-146.01294c0-70.737067-7.24979-77.98706-77.84323-77.98706z" fill="url(#linearGradient4358-6)" filter="url(#filter4380)" opacity=".3" transform="matrix(.13228516 0 0 .13228516 -4.409451 -6.038882)"/>
  <path d="m46.671928 3.4856494c9.338467 0 10.343273.959178 10.297505 10.3165306v19.315346 19.315343c.04577 9.357355-.959038 10.316531-10.297505 10.316531h-25.969365c-9.338464 0-10.297505-.959068-10.297505-10.316531v-19.315343-19.315346c0-9.3574636.959041-10.3165306 10.297505-10.3165306z" fill="url(#linearGradient4226-3)"/>
  <g fill="#fff">
    <path d="m33.688674 17.099652-14.815938 7.977933v.631972 16.506189l14.815938 7.977933 14.815938-7.977933v-17.138161zm0 2.40387 11.52586 6.206035-11.52586 6.206034-11.525861-6.206034z" fill-rule="evenodd"/>
    <path d="m33.688674 3.4856494v59.2637506h12.984614c9.338464 0 10.054627-.962123 10.297574-10.316435v-19.315439-19.315443c0-9.3574636-.95911-10.3164336-10.297574-10.3164336z" opacity=".08"/>
    <path d="m10.406486 33.117526v19.315439c-.04577 9.357354.959108 10.316435 10.297574 10.316435h25.969228c9.338464 0 10.054627-.962123 10.297574-10.316435v-19.315439z" opacity=".08"/>
    <path d="m41.096643 62.7494 15.874219-15.874219v5.948567c-.01384 8.994282-1.006077 9.925652-10.099734 9.925652z" opacity=".08"/>
  </g>
  <path d="m10.406486 51.903567v.529141c-.04577 9.357355.959107 10.316692 10.297574 10.316692h25.969228c9.338464 0 10.054627-.96238 10.297574-10.316692v-.529141c-.242947 9.354312-.95911 10.316692-10.297574 10.316692h-25.969228c-9.338467 0-10.343342-.959337-10.297574-10.316692z" opacity=".2"/>
  <path d="m20.70406 3.4856494c-9.338467 0-10.343342.95934-10.297574 10.3166916v.529141c-.04577-9.3573516.959107-10.3166916 10.297574-10.3166916h25.969228c9.338467 0 10.297574.959228 10.297574 10.3166916v-.529141c0-9.3574626-.959107-10.3166916-10.297574-10.3166916z" fill="#fff" opacity=".4"/>
</svg>

<?xml version="1.0" encoding="UTF-8" standalone="no"?>
<svg
   xmlns:dc="http://purl.org/dc/elements/1.1/"
   xmlns:cc="http://creativecommons.org/ns#"
   xmlns:rdf="http://www.w3.org/1999/02/22-rdf-syntax-ns#"
   xmlns:svg="http://www.w3.org/2000/svg"
   xmlns="http://www.w3.org/2000/svg"
   xmlns:xlink="http://www.w3.org/1999/xlink"
   xmlns:sodipodi="http://sodipodi.sourceforge.net/DTD/sodipodi-0.dtd"
   xmlns:inkscape="http://www.inkscape.org/namespaces/inkscape"
   width="256"
   height="256"
   version="1.1"
   viewBox="0 0 67.73 67.73"
   id="svg87"
   sodipodi:docname="application-vnd.flatpak.svg"
   inkscape:version="0.92.4 (5da689c313, 2019-01-14)">
  <metadata
     id="metadata91">
    <rdf:RDF>
      <cc:Work
         rdf:about="">
        <dc:format>image/svg+xml</dc:format>
        <dc:type
           rdf:resource="http://purl.org/dc/dcmitype/StillImage" />
      </cc:Work>
    </rdf:RDF>
  </metadata>
  <sodipodi:namedview
     pagecolor="#ffffff"
     bordercolor="#666666"
     borderopacity="1"
     objecttolerance="10"
     gridtolerance="10"
     guidetolerance="10"
     inkscape:pageopacity="0"
     inkscape:pageshadow="2"
     inkscape:window-width="1920"
     inkscape:window-height="1016"
     id="namedview89"
     showgrid="false"
     inkscape:zoom="0.921875"
     inkscape:cx="-78.101695"
     inkscape:cy="128"
     inkscape:window-x="0"
     inkscape:window-y="27"
     inkscape:window-maximized="1"
     inkscape:current-layer="svg87" />
  <defs
     id="defs67">
    <linearGradient
       id="linearGradient4226"
       x1="529.655"
       x2="-35.31"
       y1="401.584"
       y2="119.093"
       gradientTransform="matrix(0 -.11988932 -.11988589 0 67.016455 292.54831)"
       gradientUnits="userSpaceOnUse">
      <stop
         style="stop-color:#37a6e6"
         id="stop2"
         offset="0" />
      <stop
         style="stop-color:#6dc7f1"
         id="stop4"
         offset="1" />
    </linearGradient>
    <linearGradient
       id="linearGradient4358"
       x1="88"
       x2="488"
       y1="88"
       y2="488"
       gradientUnits="userSpaceOnUse">
      <stop
         style="stop-color:#000000;stop-opacity:.58823532"
         id="stop7"
         offset="0" />
      <stop
         style="stop-color:#000000;stop-opacity:0"
         id="stop9"
         offset=".88" />
      <stop
         style="stop-color:#000000"
         id="stop11"
         offset="1" />
    </linearGradient>
    <filter
       id="filter4346"
       width="1.026"
       height="1.022"
       x="-.01"
       y="-.01"
       style="color-interpolation-filters:sRGB">
      <feGaussianBlur
         id="feGaussianBlur14"
         stdDeviation="2.12" />
    </filter>
    <linearGradient
       id="linearGradient4226-3"
       x1="529.655"
       x2="-35.31"
       y1="401.584"
       y2="119.093"
       gradientTransform="matrix(0,-0.11988342,-0.11987999,0,67.013156,62.749399)"
       gradientUnits="userSpaceOnUse"
       xlink:href="#linearGradient4246" />
    <linearGradient
       id="linearGradient4246">
      <stop
         style="stop-color:#37a6e6"
         id="stop4248"
         offset="0" />
      <stop
         style="stop-color:#6dc7f1"
         id="stop4250"
         offset="1" />
    </linearGradient>
    <linearGradient
       id="linearGradient4358-6"
       x1="88"
       x2="488"
       y1="88"
       y2="488"
       gradientUnits="userSpaceOnUse"
       xlink:href="#linearGradient4360" />
    <linearGradient
       id="linearGradient4360">
      <stop
         id="stop4362"
         offset="0"
         style="stop-color:#000000;stop-opacity:0.58823532" />
      <stop
         style="stop-color:#000000;stop-opacity:0"
         id="stop4364"
         offset=".88" />
      <stop
         id="stop4366"
         offset="1"
         style="stop-color:#000000" />
    </linearGradient>
    <filter
       style="color-interpolation-filters:sRGB"
       id="filter4380"
       width="1.106"
       height="1.088"
       x="-.05"
       y="-.04">
      <feGaussianBlur
         id="feGaussianBlur4382"
         stdDeviation="8.48" />
    </filter>
    <filter
       style="color-interpolation-filters:sRGB"
       id="filter4346-7"
       width="1.026"
       height="1.022"
       x="-.01"
       y="-.01">
      <feGaussianBlur
         id="feGaussianBlur4348"
         stdDeviation="2.12" />
    </filter>
    <filter
       id="filter4346-3"
       width="1.026"
       height="1.022"
       x="-0.0099999998"
       y="-0.0099999998"
       style="color-interpolation-filters:sRGB">
      <feGaussianBlur
         stdDeviation="2.12"
         id="feGaussianBlur14-6" />
    </filter>
    <linearGradient
       id="linearGradient4226-5"
       x1="529.65503"
       x2="-35.310001"
       y1="401.58401"
       y2="119.093"
       gradientTransform="matrix(0,-0.11988932,0.11988589,0,0.36277965,292.54831)"
       gradientUnits="userSpaceOnUse">
      <stop
         style="stop-color:#f2f2f2"
         offset="0"
         id="stop2-6" />
      <stop
         style="stop-color:#f9f9f9"
         offset="1"
         id="stop4-2" />
    </linearGradient>
    <linearGradient
       id="linearGradient4226-3-9"
       x1="529.65503"
       x2="-35.310001"
       y1="401.58401"
       y2="119.093"
       gradientTransform="matrix(0,-0.11988342,-0.11987999,0,-45.597473,79.281408)"
       gradientUnits="userSpaceOnUse"
       xlink:href="#linearGradient4246" />
    <linearGradient
       gradientUnits="userSpaceOnUse"
       y2="119.09284"
       x2="-35.310345"
       y1="401.58368"
       x1="529.65515"
       id="linearGradient4226-36"
       xlink:href="#linearGradient4246"
       inkscape:collect="always"
       gradientTransform="matrix(0,-0.11988342,-0.11987999,0,67.013156,62.7494)" />
    <filter
       inkscape:collect="always"
       style="color-interpolation-filters:sRGB"
       id="filter4380-9"
       x="-0.052999184"
       width="1.1059984"
       y="-0.043862626"
       height="1.0877253">
      <feGaussianBlur
         inkscape:collect="always"
         stdDeviation="8.4801079"
         id="feGaussianBlur4382-1" />
    </filter>
    <filter
       inkscape:collect="always"
       style="color-interpolation-filters:sRGB"
       id="filter4346-2"
       x="-0.013249796"
       width="1.0264996"
       y="-0.010965657"
       height="1.0219313">
      <feGaussianBlur
         inkscape:collect="always"
         stdDeviation="2.120027"
         id="feGaussianBlur4348-7" />
    </filter>
  </defs>
  <path
     style="color:#000000;display:inline;overflow:visible;visibility:visible;opacity:0.1;fill:#000000;fill-opacity:1;fill-rule:nonzero;stroke:none;stroke-width:2;marker:none;filter:url(#filter4346-2);enable-background:accumulate"
     d="M 189.84323,74 C 119.24979,74 111.65402,81.250835 112,151.98706 V 298 444.01294 C 111.65402,514.74917 119.24979,522 189.84323,522 H 386.15677 C 456.75021,522 462.16345,514.72616 464,444.01294 V 298 151.98706 C 464,81.249993 456.75021,74 386.15677,74 Z"
     id="rect4158-9"
     inkscape:connector-curvature="0"
     sodipodi:nodetypes="scccssscsss"
     transform="matrix(0.13228516,0,0,0.13228516,-4.4094514,-6.0388816)" />
  <path
     sodipodi:nodetypes="scccssscsss"
     inkscape:connector-curvature="0"
     id="path4350"
     d="M 189.84323,74 C 119.24979,74 111.65402,81.250835 112,151.98706 V 298 444.01294 C 111.65402,514.74917 119.24979,522 189.84323,522 H 386.15677 C 456.75021,522 464,514.75001 464,444.01294 V 298 151.98706 C 464,81.249993 456.75021,74 386.15677,74 Z"
     style="color:#000000;display:inline;overflow:visible;visibility:visible;opacity:0.3;fill:url(#linearGradient4358-6);fill-opacity:1;fill-rule:nonzero;stroke:none;stroke-width:2;marker:none;filter:url(#filter4380-9);enable-background:accumulate"
     transform="matrix(0.13228516,0,0,0.13228516,-4.4094514,-6.0388816)" />
  <path
     style="color:#000000;display:inline;overflow:visible;visibility:visible;fill:url(#linearGradient4226-36);fill-opacity:1;fill-rule:nonzero;stroke:none;stroke-width:0.26457033;marker:none;enable-background:accumulate"
     d="m 46.671928,3.4856498 c 9.338467,0 10.343273,0.959178 10.297505,10.3165312 V 33.117526 52.43287 c 0.04577,9.357355 -0.959038,10.316531 -10.297505,10.316531 H 20.702563 c -9.338464,0 -10.297505,-0.959068 -10.297505,-10.316531 V 33.117526 13.802181 c 0,-9.3574652 0.959041,-10.3165312 10.297505,-10.3165312 z"
     id="rect4158"
     inkscape:connector-curvature="0"
     sodipodi:nodetypes="scccssscsss" />
  <path
     style="color:#000000;font-style:normal;font-variant:normal;font-weight:normal;font-stretch:normal;font-size:medium;line-height:normal;font-family:sans-serif;font-variant-ligatures:normal;font-variant-position:normal;font-variant-caps:normal;font-variant-numeric:normal;font-variant-alternates:normal;font-feature-settings:normal;text-indent:0;text-align:start;text-decoration:none;text-decoration-line:none;text-decoration-style:solid;text-decoration-color:#000000;letter-spacing:normal;word-spacing:normal;text-transform:none;writing-mode:lr-tb;direction:ltr;text-orientation:mixed;dominant-baseline:auto;baseline-shift:baseline;text-anchor:start;white-space:normal;shape-padding:0;clip-rule:nonzero;display:inline;overflow:visible;visibility:visible;opacity:1;isolation:auto;mix-blend-mode:normal;color-interpolation:sRGB;color-interpolation-filters:linearRGB;solid-color:#000000;solid-opacity:1;vector-effect:none;fill:#ffffff;fill-opacity:1;fill-rule:evenodd;stroke:none;stroke-width:2.1165626;stroke-linecap:butt;stroke-linejoin:miter;stroke-miterlimit:4;stroke-dasharray:none;stroke-dashoffset:0;stroke-opacity:1;color-rendering:auto;image-rendering:auto;shape-rendering:auto;text-rendering:auto;enable-background:accumulate"
     d="m 33.688674,17.099653 -14.815938,7.977932 v 0.631972 16.50619 L 33.688674,50.19368 48.504612,42.215747 V 25.077585 Z m 0,2.40387 11.52586,6.206034 -11.52586,6.206034 -11.525861,-6.206034 z"
     id="path1174"
     inkscape:connector-curvature="0"
     sodipodi:nodetypes="ccccccccccccc" />
  <path
     style="color:#000000;display:inline;overflow:visible;visibility:visible;opacity:0.07999998;fill:#ffffff;fill-opacity:1;fill-rule:nonzero;stroke:none;stroke-width:0.26457033;marker:none;enable-background:accumulate"
     d="M 33.688674,3.4856498 V 62.749401 h 12.984614 c 9.338464,0 10.054627,-0.962123 10.297574,-10.316435 V 33.117526 13.802084 c 0,-9.3574642 -0.95911,-10.3164342 -10.297574,-10.3164342 z"
     id="path4231"
     inkscape:connector-curvature="0"
     sodipodi:nodetypes="ccsscssc" />
  <path
     inkscape:connector-curvature="0"
     style="color:#000000;display:inline;overflow:visible;visibility:visible;opacity:0.07999998;fill:#ffffff;fill-opacity:1;fill-rule:nonzero;stroke:none;stroke-width:0.26457033;marker:none;enable-background:accumulate"
     d="m 10.406486,33.117526 v 19.31544 c -0.04577,9.357354 0.959108,10.316435 10.297574,10.316435 h 25.969228 c 9.338464,0 10.054627,-0.962123 10.297574,-10.316435 v -19.31544 z"
     id="path4255"
     sodipodi:nodetypes="ccssscc" />
  <path
     style="color:#000000;display:inline;overflow:visible;visibility:visible;opacity:0.07999998;fill:#ffffff;fill-opacity:1;fill-rule:nonzero;stroke:none;stroke-width:2.11656237;stroke-linecap:butt;stroke-linejoin:miter;stroke-miterlimit:4;stroke-dasharray:none;stroke-dashoffset:0;stroke-opacity:1;marker:none;enable-background:accumulate"
     d="M 41.096643,62.749401 56.970862,46.875182 v 5.948567 c -0.01384,8.994282 -1.006077,9.925652 -10.099734,9.925652 z"
     id="path4254"
     inkscape:connector-curvature="0"
     sodipodi:nodetypes="cccsc" />
  <path
     style="color:#000000;display:inline;overflow:visible;visibility:visible;opacity:0.2;fill:#000000;fill-opacity:1;fill-rule:nonzero;stroke:none;stroke-width:0.26457033;marker:none;enable-background:accumulate"
     d="m 10.406486,51.903568 v 0.529141 c -0.04577,9.357355 0.959107,10.316692 10.297574,10.316692 h 25.969228 c 9.338464,0 10.054627,-0.96238 10.297574,-10.316692 V 51.903568 C 56.727915,61.25788 56.011752,62.22026 46.673288,62.22026 H 20.70406 c -9.338467,0 -10.343342,-0.959337 -10.297574,-10.316692 z"
     id="path945"
     inkscape:connector-curvature="0" />
  <path
     style="color:#000000;display:inline;overflow:visible;visibility:visible;opacity:0.4;fill:#ffffff;fill-opacity:1;fill-rule:nonzero;stroke:none;stroke-width:0.26457033;marker:none;enable-background:accumulate"
     d="m 20.70406,3.4856498 c -9.338466,0 -10.343342,0.95934 -10.297574,10.3166922 v 0.529141 C 10.360718,4.9741298 11.365594,4.0147908 20.70406,4.0147908 h 25.969228 c 9.338467,0 10.297574,0.959228 10.297574,10.3166922 v -0.529141 c 0,-9.3574642 -0.959107,-10.3166922 -10.297574,-10.3166922 z"
     id="path931"
     inkscape:connector-curvature="0" />
</svg>
